src/pos-icons/package-down.svg

<svg height="24" viewBox="0 0 24 24" width="24" xmlns="http://www.w3.org/2000/svg"><path d="m5.12 5 .81-1h12l.94 1m-6.87 12.5-5.5-5.5h3.5v-2h4v2h3.5zm8.54-12.27-1.39-1.68c-.27-.34-.68-.55-1.15-.55h-12c-.47 0-.88.21-1.16.55l-1.38 1.68c-.29.34-.46.77-.46 1.27v12.5a2 2 0 0 0 2 2h14a2 2 0 0 0 2-2v-12.5c0-.5-.17-.93-.46-1.27z"/></svg>

<?xml version="1.0" encoding="UTF-8"?><!DOCTYPE svg PUBLIC "-//W3C//DTD SVG 1.1//EN" "http://www.w3.org/Graphics/SVG/1.1/DTD/svg11.dtd"><svg xmlns="http://www.w3.org/2000/svg" xmlns:xlink="http://www.w3.org/1999/xlink" version="1.1" id="mdi-package-down" width="24" height="24" viewBox="0 0 24 24"><path d="M5.12,5L5.93,4H17.93L18.87,5M12,17.5L6.5,12H10V10H14V12H17.5L12,17.5M20.54,5.23L19.15,3.55C18.88,3.21 18.47,3 18,3H6C5.53,3 5.12,3.21 4.84,3.55L3.46,5.23C3.17,5.57 3,6 3,6.5V19A2,2 0 0,0 5,21H19A2,2 0 0,0 21,19V6.5C21,6 20.83,5.57 20.54,5.23Z" /></svg>
